X:1
T: Green Gates
C:
R:Reel
Q: 232
K:G
M:4/4
L:1/8
|:D|GB dg eg dB|GB dg ((3efg) dg|eA cA eA cA|cd ef ge dB|
GB dg eg dB|GB dg ((3efg) dg|cd ef ge dc|BG AF G2 G2|
dg ((3gfg) bg ((3gfg)|dg fg ((3efg) df|eA cA eA cA|cd ef ge dB|
dg ((3gfg) bg ((3gfg)|dg fg e2 dB|cd ef ge dc|BG AF G3:|
